!!!COM:	Anonymous
!!!OTL:	Da pacem domine III
!!!AGN:	Motet
!!!SCT:	Ano2006
!!!SCA:	Ano2006
!!!SMS:	Cappella Sistina 15
!!!folio:	268v-269r
!!!voices:	4
**kern	**text	**kern	**text	**kern	**text	**kern	**text
*staff4	*staff4	*staff3	*staff3	*staff2	*staff2	*staff1	*staff1
*Ivox	*	*Ivox	*	*Ivox	*	*Ivox	*
*I"Bassus	*	*I"Tenor	*	*I"Altus	*	*I"Superius	*
*I'B	*	*I'T	*	*I'A	*	*I'S	*
*clefF4	*	*clefGv2	*	*clefGv2	*	*clefG2	*
*k[b-]	*	*k[b-]	*	*k[b-]	*	*k[b-]	*
*M2/1	*	*M2/1	*	*M2/1	*	*M2/1	*
*met(C|)	*	*met(C|)	*	*met(C|)	*	*met(C|)	*
=1-	=1-	=1-	=1-	=1-	=1-	=1-	=1-
1G	Da	0r	.	0r	.	0r	.
1F	pa-	.	.	.	.	.	.
=2	=2	=2	=2	=2	=2	=2	=2
1G	-cem,	0r	.	1G	Da	0r	.
1r	.	.	.	1F	pa-	.	.
=3	=3	=3	=3	=3	=3	=3	=3
1B-	Do-	1G	Da	1G	-cem,	0r	.
1c	-mi-	1F	pa-	1r	.	.	.
=4	=4	=4	=4	=4	=4	=4	=4
2.B-	-ne,	1G	-cem,	1B-	Do-	1g	Da
4c	.	.	.	.	.	.	.
1A	.	1r	.	1c	-mi-	1f	pa-
=5	=5	=5	=5	=5	=5	=5	=5
2r	.	1B-	Do-	2B-	-ne,	1g	-cem,
1G	Do-	.	.	2d	.	.	.
.	.	1c	-mi-	2e	.	1r	.
2F	.	.	.	2f	.	.	.
=6	=6	=6	=6	=6	=6	=6	=6
2G	.	2B-	-ne,	2d	.	1b-	Do-
2B-	.	1d	.	2.g	.	.	.
1A	-mi-	.	.	.	.	1cc	-mi-
.	.	.	.	4f#i	.	.	.
.	.	2c	.	4f#i	.	.	.
.	.	.	.	4e	.	.	.
=7	=7	=7	=7	=7	=7	=7	=7
1G	-ne,	1d	.	2.g	.	1b-	-ne,
.	.	.	.	4f	.	.	.
2r	.	1B-	.	[1d	.	2r	.
[2GG	Do-	.	.	.	.	[2dd	Do-
=8	=8	=8	=8	=8	=8	=8	=8
4GG]	.	2r	.	1d]	.	4dd]	.
4AA	.	.	.	.	.	4cc	.
4BB-	.	2.d	Do-	.	.	4b-	.
4C	.	.	.	.	.	4a	.
2D	.	.	.	2r	.	4b-	.
.	.	4c	.	.	.	4a	.
[2E-	.	4B-	.	2G	Do-	4g	.
.	.	4A	.	.	.	4f	.
=9	=9	=9	=9	=9	=9	=9	=9
2E-]	.	2G	.	4B-	.	2g	.
.	.	.	.	4c	.	.	.
1D	.	2.A	.	1d	.	1f	.
.	.	4F	.	.	.	.	.
2E-i	.	2B-	.	2G	-mi-	2g	.
=10	=10	=10	=10	=10	=10	=10	=10
2F	.	2A	.	2d	.	2f	.
2G	.	2B-	.	2e	.	2.b-	.
1F	-mi-	1c	-mi-	1f	.	.	.
.	.	.	.	.	.	4a	.
.	.	.	.	.	.	4a	-mi-
.	.	.	.	.	.	4g	.
=11	=11	=11	=11	=11	=11	=11	=11
[0BB-	-ne,	[0B-	-ne,	0d	-ne,	[0b-	-ne,
=12	=12	=12	=12	=12	=12	=12	=12
1BB-]	.	1B-]	.	0r	.	1b-]	.
1AA	in	1r	.	.	.	1r	.
=13	=13	=13	=13	=13	=13	=13	=13
1BB-	di-	0r	.	1r	.	0r	.
1C	-e-	.	.	1A	in	.	.
=14	=14	=14	=14	=14	=14	=14	=14
1BB-	-bus	0r	.	1B-	di-	1r	.
1AA	.	.	.	1c	-e-	1a	in
=15	=15	=15	=15	=15	=15	=15	=15
2r	.	1r	.	1B-	-bus	1b-	di-
2.G	no-	.	.	.	.	.	.
.	.	1A	in	1A	.	1cc	-e-
4F	.	.	.	.	.	.	.
4F	.	.	.	.	.	.	.
4E	.	.	.	.	.	.	.
=16	=16	=16	=16	=16	=16	=16	=16
1G	.	1B-	di-	2r	.	1b-	-bus
.	.	.	.	2d	no-	.	.
1F	.	1c	-e-	1f	.	[1a	.
=17	=17	=17	=17	=17	=17	=17	=17
1G	-stris,	1B-	-bus	2e	.	2a]	.
.	.	.	.	2.d	.	1g	.
1D	.	1A	.	.	.	.	.
.	.	.	.	4c	.	.	.
.	.	.	.	4B-	.	2f	.
.	.	.	.	4A	.	.	.
=18	=18	=18	=18	=18	=18	=18	=18
2r	.	2G	no-	2B-	.	2g	.
2.D	no-	2F	.	2A	.	2a	.
.	.	2G	.	2G	.	2d	.
4E	.	.	.	.	.	.	.
[2F	.	[2D	.	[2A	.	[2dd	no-
=19	=19	=19	=19	=19	=19	=19	=19
2F]	.	2D]	.	2A]	.	4dd]	.
.	.	.	.	.	.	4cc	.
1BB-	.	1d	.	2F	.	1b-	.
.	.	.	.	2.f	.	.	.
2C	.	4c	.	.	.	4a	.
.	.	4B-	.	4e	.	4g	.
=20	=20	=20	=20	=20	=20	=20	=20
2D	.	2A	.	2d	.	2f	.
2E-i	.	2G	.	2c	.	2.g	.
1D	.	1A	.	[1d	-stris,	.	.
.	.	.	.	.	.	4f#i	.
.	.	.	.	.	.	4f#i	.
.	.	.	.	.	.	4e	.
=21	=21	=21	=21	=21	=21	=21	=21
0GG	-stris,	[0G	-stris,	1d]	.	1g	-stris,
.	.	.	.	2r	.	2r	.
.	.	.	.	[2d	no-	[2g	no-
=22	=22	=22	=22	=22	=22	=22	=22
2r	.	0G]	.	4d]	.	4g]	.
.	.	.	.	4c	.	4f	.
2.G	no-	.	.	1B-	.	1d	.
4F	.	.	.	.	.	.	.
2G	.	.	.	4A	.	4c	.
.	.	.	.	4G	.	4B-	.
=23	=23	=23	=23	=23	=23	=23	=23
2D	.	0r	.	2F	.	2A	.
2E-i	.	.	.	1G	.	2G	.
1D	.	.	.	.	.	1A	.
.	.	.	.	2F#i	.	.	.
=24	=24	=24	=24	=24	=24	=24	=24
[0GG	-stris,	0r	.	[0G	-stris,	0G	-stris,
=25	=25	=25	=25	=25	=25	=25	=25
0GG]	.	0r	.	0G]	.	1r	.
.	.	.	.	.	.	1B-	Qui-
=26	=26	=26	=26	=26	=26	=26	=26
0r	.	0r	.	1r	.	1A	.
.	.	.	.	1B-	Qui-	1G	-a
=27	=27	=27	=27	=27	=27	=27	=27
1r	.	0r	.	1A	.	2r	.
.	.	.	.	.	.	2A	non
1BB-	Qui-	.	.	1G	-a	1B-	.
=28	=28	=28	=28	=28	=28	=28	=28
1AA	.	1r	.	2r	.	1c	est
.	.	.	.	2A	non	.	.
1GG	-a	1B-	Qui-	1B-	.	1d	.
=29	=29	=29	=29	=29	=29	=29	=29
2r	.	1A	.	1c	est	4c	a-
.	.	.	.	.	.	4d	.
2AA	non	.	.	.	.	4e	.
.	.	.	.	.	.	4f	.
1BB-	est	1G	-a	1d	.	2g	.
.	.	.	.	.	.	2d	-li-
=30	=30	=30	=30	=30	=30	=30	=30
1C	.	2r	.	4c	a-	1e	-us,
.	.	.	.	4d	.	.	.
.	.	2A	non	4e	.	.	.
.	.	.	.	4c	.	.	.
1D	a-	1B-	est	2f	.	1d	.
.	.	.	.	2d	-li-	.	.
=31	=31	=31	=31	=31	=31	=31	=31
4C	-li-	1c	.	1e	-us,	2r	.
4D	.	.	.	.	.	.	.
4E	.	.	.	.	.	1g	a-
4C	.	.	.	.	.	.	.
2F	.	1d	a-	2r	.	.	.
2D	.	.	.	[2A	a-	2f	-li-
=32	=32	=32	=32	=32	=32	=32	=32
1E	.	1c	.	2A]	.	1g	-us,
.	.	.	.	2G	.	.	.
2D	.	2d	-li-	2A	.	2r	.
[2G	.	[2e	.	[2B-	-li-	[2b-	a-
=33	=33	=33	=33	=33	=33	=33	=33
2G]	.	2e]	.	2B-]	.	4b-]	.
.	.	.	.	.	.	4a	.
2F	.	1d	.	1A	.	2f	.
1E	.	.	.	.	.	1g	-li-
.	.	2c#i	.	2G	.	.	.
=34	=34	=34	=34	=34	=34	=34	=34
0D	-us,	[0d	-us,	[0A	-us,	[0f	-us,
=35	=35	=35	=35	=35	=35	=35	=35
2r	.	0d]	.	1A]	.	0f]	.
2.D	a-	.	.	.	.	.	.
.	.	.	.	2r	.	.	.
4E	.	.	.	.	.	.	.
4F	.	.	.	[2A	a-	.	.
4E	.	.	.	.	.	.	.
=36	=36	=36	=36	=36	=36	=36	=36
2.F	.	0r	.	4A]	.	0r	.
.	.	.	.	4B-	.	.	.
.	.	.	.	4c	.	.	.
4G	.	.	.	4B-	.	.	.
4A	.	.	.	2.c	.	.	.
4G	.	.	.	.	.	.	.
[2A	.	.	.	.	.	.	.
.	.	.	.	4d	.	.	.
=37	=37	=37	=37	=37	=37	=37	=37
4A]	.	0r	.	4e	.	0r	.
4F	.	.	.	4d	.	.	.
2G	.	.	.	2e	.	.	.
2A	.	.	.	2f	.	.	.
[2B-	-li-	.	.	[2g	-li-	.	.
=38	=38	=38	=38	=38	=38	=38	=38
4B-]	.	0r	.	4g]	.	0r	.
4A	.	.	.	4f	.	.	.
4G	.	.	.	4e	.	.	.
4F	.	.	.	4d	.	.	.
1E	.	.	.	2.c#i	.	.	.
.	.	.	.	4B	.	.	.
=39	=39	=39	=39	=39	=39	=39	=39
0D	-us,	0r	.	1d	-us,	0r	.
.	.	.	.	1r	.	.	.
=40	=40	=40	=40	=40	=40	=40	=40
0r	.	0r	.	3%2dV	Qui	0r	.
.	.	.	.	3%2d	pu-	.	.
.	.	.	.	3%2cZ	-gnet	.	.
=41	=41	=41	=41	=41	=41	=41	=41
3%2DV	Qui	0r	.	3%2B-V	pro	0r	.
3%2D	pu-	.	.	3B-	no-	.	.
.	.	.	.	3A	.	.	.
3%2CZ	-gnet	.	.	3A	.	.	.
.	.	.	.	3GZ	.	.	.
=42	=42	=42	=42	=42	=42	=42	=42
3%2BB-V	pro	3%2dV	Qui	3%2B-V	-bis,	0r	.
3BB-	no-	3%2d	pu-	3%4rZ	.	.	.
3AA	.	.	.	.	.	.	.
3AA	.	3%2cZ	-gnet	.	.	.	.
3GGZ	.	.	.	.	.	.	.
=43	=43	=43	=43	=43	=43	=43	=43
3BB-V	.	3%4B-V	pro	3%4.fVZ	no-	3%2ddV	Qui
3C	.	.	.	.	.	.	.
3D	.	.	.	.	.	3%2dd	pu-
3E	.	.	.	.	.	.	.
3%2FZ	.	3%2AZ	.	.	.	3%2ccZ	-gnet
=44	=44	=44	=44	=44	=44	=44	=44
3%2GV	.	3%2B-V	no-	3%2eV	.	3%2b-V	pro
3%4FZ	.	3%4cZ	.	3%4fZ	.	3b-	no-
.	.	.	.	.	.	3a	.
.	.	.	.	.	.	3a	.
.	.	.	.	.	.	3gZ	.
=45	=45	=45	=45	=45	=45	=45	=45
0BB-	-bis,	[0B-	-bis,	[0d	-bis,	[0b-	-bis,
=46	=46	=46	=46	=46	=46	=46	=46
1BB-	Ni-	1B-]	.	1d]	.	1b-]	.
1AA	-si	1r	.	1r	.	1r	.
=47	=47	=47	=47	=47	=47	=47	=47
1BB-	tu,	0r	.	1B-	Ni-	0r	.
1C	.	.	.	1A	-si	.	.
=48	=48	=48	=48	=48	=48	=48	=48
2BB-	De-	0r	.	1B-	tu,	1b-	Ni-
2GG	.	.	.	.	.	.	.
1AA	.	.	.	1c	.	1a	-si
=49	=49	=49	=49	=49	=49	=49	=49
2GG	.	1B-	Ni-	2B-	De-	1b-	tu,
1G	.	.	.	2G	.	.	.
.	.	1A	-si	1A	-us,	1cc	.
2F	.	.	.	.	.	.	.
=50	=50	=50	=50	=50	=50	=50	=50
1G	-us,	1B-	tu,	2r	.	2b-	.
.	.	.	.	2d	De-	2g	.
1F	.	1c	De-	1f	.	1a	.
=51	=51	=51	=51	=51	=51	=51	=51
2r	.	1B-	-us	2e	.	2g	De-
1G	De-	.	.	2.d	.	1b-	.
.	.	1G	.	.	.	.	.
.	.	.	.	4B-	.	.	.
4F	.	.	.	2c	.	4a	.
4E	.	.	.	.	.	4g	.
=52	=52	=52	=52	=52	=52	=52	=52
0D	-us	0A	.	0d	-us	0f	-us
=53	=53	=53	=53	=53	=53	=53	=53
3%4DV	no-	3%4AV	no-	3%4dV	no-	3%4fV	no-
3%2GGZ	.	3%2B-Z	.	[3%2dZ	.	3%2gZ	.
=54	=54	=54	=54	=54	=54	=54	=54
3%2.DV	.	3%2AV	.	3d]V	.	3%2.fV	.
.	.	.	.	3c	.	.	.
.	.	3%4dZ	.	3%4AZ	.	.	.
3E	.	.	.	.	.	3g	.
3F	.	.	.	.	.	3a	.
3DZ	.	.	.	.	.	3fZ	.
=55	=55	=55	=55	=55	=55	=55	=55
3%2.GV	.	3%2.dV	.	3%2GV	.	3%2.b-V	.
.	.	.	.	3%2.B-	.	.	.
3A	.	3c	.	.	.	3cc	.
3B-	.	3%2B-Z	.	.	.	3dd	.
3GZ	.	.	.	3AZ	.	3b-Z	.
=56	=56	=56	=56	=56	=56	=56	=56
3%2AV	.	3%2AV	.	3%2FV	.	3%2ccV	.
3%4FZ	.	3%2.c	.	3%2.f	.	3b-	.
.	.	.	.	.	.	3%2a	.
.	.	3B-Z	.	3eZ	.	3gZ	.
=57	=57	=57	=57	=57	=57	=57	=57
3%2GV	.	3AV	.	3%2.dV	.	3%2.gV	.
.	.	3G	.	.	.	.	.
3%4DZ	.	3%4AZ	.	.	.	.	.
.	.	.	.	3c	.	3f#i	.
.	.	.	.	3B-	.	3f#i	.
.	.	.	.	3AZ	.	3eZ	.
=58	=58	=58	=58	=58	=58	=58	=58
[0GGl	-ster.	[0Gl	-ster.	0B-	-ster.	[0gl	-ster.
=59	=59	=59	=59	=59	=59	=59	=59
0GG]	.	0G]	.	0dl	.	0g]	.
==	==	==	==	==	==	==	==
*-	*-	*-	*-	*-	*-	*-	*-
!!!RDF**kern: l=long note in original notation
!!!RDF**kern: i=editorial accidental
!!!RDF**kern: V=start of tuplet marker
!!!RDF**kern: Z=end of tuplet marker
!!!ENC:	Jesse Rodin 8/15/2013
!!!END:	2013/08/15/
!!!EED:	Jesse Rodin
!!!EEV:	2016/02/22/
!!!ONB:	Translated from MusicXML and edited on 2016/02/22/ by Craig Sapp
!!muse2ps: C^@{COM}\n@{SMS}, @{folio}^v85,85,85,150Q16
